X:15
T:The Tenpenny Bit
R:jig
O:Ireland
M:6/8
L:1/8
K:Ador
d | "Am" eAA  eAA | "G" BAB GBd | "Am" eAA     eAA | "G/D" def "G" gfg |
    "Am" eAA  eAA | "G" BAB GBd | "Em" edB "G" gBB | "Am" BAA       A2 :|
B | "Am" A2 a aga | "G" bge dBG | "Am" A2  a   aga | "Em" bge "G" g2 d |
    "Am" e2 a aga | "G" bge dBd | "Em" edB "G" gBB | "Am" BAA       A2 :|
